X:18943
T:Wöi i a kloi(n)s Trutscherl - Landla
B:"Alt-Egerländer Tänze", E. Baumann
Z:abc transcription Simon Wascher
N:please mail errors to simon.wascher@chello.at
M:3/4
L:1/4
K:G
z|GG/G/B|dg/B/d|Ac/D/F/F/|GB/D/G|
GG/G/B|dg/B/d|Ac/D/F/F/|G2g/>g/|
e2g/>g/|d2B/d/|dc/F/c/F/|G/B/dg/>g/|
e2g/>g/|d2B/d/|dc/F/c/F/|G2:|
K:C
|:G/G/|E>DE|F>EF|G>AG|E2E/F/|
G2e|F2d|c3|cG/G/G/G/|
E>DE|F>EF|G>AG|E2E/F/|
G2e|f>BB|c3|cz:|
